X:156
T:Flatbush (Clarinet)
M:3/4
L:1/8
K:AMin
"Am"e3 a ed|(3cdc) A2A2|e3 a ec|"Dm"d3 f ed|"Am"AB cd ee|"Dm"dA d2 d2|"A
m"c3 d "Bb"_Bc|"Am"AA ce ac'|
"Am"e3 a ed|(3cdc) A2A2|e3 a ec|"Dm"d3 f ed|"C"cd ef ge|"Dm"dA d2d2|"Am"
c3 d "Bb"_Bc|"Am"AA ce ac'|
"Am"c'4 ba|"E"bE ^GB e^g|"F"a2 g3 f|"C"e6|"Dm"f2e2d2|"Am"e2a2b2|c'3b c'd
'|"E"e6|
"Am"c'4 ba|"E"bE ^GB e^g|"F"a2g3f|"C"e6|"Dm"f2e2d2|"Am"e2A2d2|"Am"c3d "B
b"_Bc|"Am"A4z2||
